X:1
T:La Rosa Enflorece
M:4/4
N: maqam=A-hijaz humayun;also played in D-hijaz; rhythm=bolero or maqsum
K:C_B^C
A|d3e fe df|ed cBA2zA|d3e fe df|e4z2ef|
g/2f/2e eg fe df|ed cBA3 A|cB2A GA Bc|AB cde2 ef|
g/2f/2e eg fe df|ed cBA3 A|cB2A GA Bc|A4z3:|

$$$

